lib/flags/s/DO.svg

<svg xmlns="http://www.w3.org/2000/svg" fill="none" viewBox="0 0 16 12"><mask id="DO_svg__a" width="16" height="12" x="0" y="0" mask-type="alpha" maskUnits="userSpaceOnUse"><path fill="#fff" d="M0 0H16V12H0z"/></mask><g mask="url(#DO_svg__a)"><path fill="#C51918" fill-rule="evenodd" d="M0 0V12H16V0H0Z" clip-rule="evenodd"/><mask id="DO_svg__b" width="16" height="12" x="0" y="0" mask-type="alpha" maskUnits="userSpaceOnUse"><path fill="#fff" fill-rule="evenodd" d="M0 0V12H16V0H0Z" clip-rule="evenodd"/></mask><g mask="url(#DO_svg__b)"><path fill="#F7FCFF" fill-rule="evenodd" d="M7 0H9V5H16V7H9V12H7V7H0V5H7V0Z" clip-rule="evenodd"/><path fill="#4257BF" d="M0 0H7V5H0z"/><path fill="#4257BF" d="M9 7H16V12H9z"/><path fill="#309404" d="M6.81847 5.5553 7.3162 5.60294C7.23101 6.49299 7.34171 6.86803 7.52161 6.86803V7.36803C6.89941 7.36803 6.70727 6.71712 6.81847 5.5553zM9.21336 5.5553 8.71563 5.60294C8.80082 6.49299 8.69012 6.86803 8.51022 6.86803V7.36803C9.13242 7.36803 9.32456 6.71712 9.21336 5.5553z"/><path fill="#003994" d="M7.364 5.346H7.837V6.084H7.364z"/><path fill="#003994" d="M8.09091 6.22302H8.56364V6.59785C8.56364 6.79868 8.40083 6.96148 8.2 6.96148H8.09091V6.22302Z"/><path fill="#DE2110" d="M8.055 5.3H8.528V6.038H8.055z"/><path fill="#DE2110" d="M7.36365 6.22302H7.83637V6.96148H7.72728C7.52645 6.96148 7.36365 6.79868 7.36365 6.59785V6.22302Z"/><path fill="#00319C" d="M7.16723 5.30463L6.83279 4.93295C7.18597 4.61517 7.55404 4.44995 7.93312 4.44995C8.3122 4.44995 8.68028 4.61517 9.03345 4.93295L8.69901 5.30463C8.43154 5.06396 8.17754 4.94995 7.93312 4.94995C7.68871 4.94995 7.43471 5.06396 7.16723 5.30463Z"/><path fill="#DE2110" d="M7.20361 7.79694L6.86917 7.42525C7.22234 7.10748 7.59042 6.94226 7.9695 6.94226C8.34858 6.94226 8.71666 7.10748 9.06983 7.42525L8.73539 7.79694C8.46791 7.55627 8.21392 7.44226 7.9695 7.44226C7.72508 7.44226 7.47109 7.55627 7.20361 7.79694Z"/></g></g></svg>

<svg xmlns="http://www.w3.org/2000/svg" fill="none" viewBox="0 0 16 12"><mask id="DO_svg__a" width="16" height="12" x="0" y="0" maskUnits="userSpaceOnUse"><path fill="#fff" d="M0 0h16v12H0z"/></mask><g mask="url(#DO_svg__a)"><path fill="#C51918" fill-rule="evenodd" d="M0 0v12h16V0H0z" clip-rule="evenodd"/><mask id="DO_svg__b" width="16" height="12" x="0" y="0" maskUnits="userSpaceOnUse"><path fill="#fff" fill-rule="evenodd" d="M0 0v12h16V0H0z" clip-rule="evenodd"/></mask><g mask="url(#DO_svg__b)"><path fill="#F7FCFF" fill-rule="evenodd" d="M7 0h2v5h7v2H9v5H7V7H0V5h7V0z" clip-rule="evenodd"/><path fill="#4257BF" d="M0 0h7v5H0zm9 7h7v5H9z"/><path fill="#309404" d="M6.818 5.555l.498.048c-.085.89.026 1.265.206 1.265v.5c-.623 0-.815-.65-.704-1.813zm2.395 0l-.497.048c.085.89-.026 1.265-.206 1.265v.5c.622 0 .815-.65.703-1.813z"/><path fill="#003994" d="M7.364 5.346h.473v.738h-.473zm.726.877h.474v.375c0 .2-.163.364-.364.364h-.11v-.739z"/><path fill="#DE2110" d="M8.054 5.3h.473v.738h-.473zm-.69.923h.472v.739h-.109a.364.364 0 01-.363-.364v-.375z"/><path fill="#00319C" d="M7.167 5.305l-.334-.372c.353-.318.721-.483 1.1-.483.38 0 .747.165 1.1.483l-.334.372c-.267-.241-.521-.355-.766-.355-.244 0-.498.114-.766.355z"/><path fill="#DE2110" d="M7.204 7.797l-.335-.372c.353-.317.721-.483 1.1-.483.38 0 .748.166 1.1.483l-.334.372c-.267-.24-.521-.355-.766-.355-.244 0-.498.114-.765.355z"/></g></g></svg>
